assets/icons/24px/stroke/bullet-list-24px.svg

<svg width="24" height="24" viewBox="0 0 24 24" fill="none" xmlns="http://www.w3.org/2000/svg">
<path fill-rule="evenodd" clip-rule="evenodd" d="M7 7C7 6.44772 7.44772 6 8 6H21C21.5523 6 22 6.44772 22 7C22 7.55228 21.5523 8 21 8H8C7.44772 8 7 7.55228 7 7ZM7 12C7 11.4477 7.44772 11 8 11H21C21.5523 11 22 11.4477 22 12C22 12.5523 21.5523 13 21 13H8C7.44772 13 7 12.5523 7 12ZM7 17C7 16.4477 7.44772 16 8 16H21C21.5523 16 22 16.4477 22 17C22 17.5523 21.5523 18 21 18H8C7.44772 18 7 17.5523 7 17Z" fill="white"/>
<path d="M4 7C4 7.55228 3.55228 8 3 8C2.44772 8 2 7.55228 2 7C2 6.44772 2.44772 6 3 6C3.55228 6 4 6.44772 4 7Z" fill="white"/>
<path d="M4 12C4 12.5523 3.55228 13 3 13C2.44772 13 2 12.5523 2 12C2 11.4477 2.44772 11 3 11C3.55228 11 4 11.4477 4 12Z" fill="white"/>
<path d="M4 17C4 17.5523 3.55228 18 3 18C2.44772 18 2 17.5523 2 17C2 16.4477 2.44772 16 3 16C3.55228 16 4 16.4477 4 17Z" fill="white"/>
</svg>

<svg width="24" height="24" fill="none" xmlns="http://www.w3.org/2000/svg"><path fill-rule="evenodd" clip-rule="evenodd" d="M7 7a1 1 0 0 1 1-1h13a1 1 0 1 1 0 2H8a1 1 0 0 1-1-1zm0 5a1 1 0 0 1 1-1h13a1 1 0 1 1 0 2H8a1 1 0 0 1-1-1zm0 5a1 1 0 0 1 1-1h13a1 1 0 1 1 0 2H8a1 1 0 0 1-1-1z" fill="#fff"/><path d="M4 7a1 1 0 1 1-2 0 1 1 0 0 1 2 0zm0 5a1 1 0 1 1-2 0 1 1 0 0 1 2 0zm0 5a1 1 0 1 1-2 0 1 1 0 0 1 2 0z" fill="#fff"/></svg>
